X:1
T:Title
%%score { 1 | 2 }
L:1/8
Q:1/4=120
M:6/4
K:Eb
V:1 treble nm="Grand Piano"
V:2 bass 
V:1
 [EG]2 [FA]2 [_G=A]2 [=GB]4 [GB]2 | [GB]2 [Gc]2 [EG]2 [DA]6 | [FA]2 [FA]2 [FA]2 [FAd]4 [DAc]2 | %3
w: H.~R.~Willard * * * *|||
 [Ac]2 [GB]2 [_G=A]2 [=GB]6 | [GB]2 [Ac]2 [GB]2 [Ge]4 G2 | G2 A2 B2 c6 | c2 c2 c2 B4 G2 | %7
w: ||||
 [A,DF]6 .[G,E]6 | [B,GB]2 [B,EG]2 [B,GB]2 [Ge]4 [Be]2 | [ce]6 .c6 | A2 c2 c2 [GB]4 [Gc]2 | %11
w: ||||
 [EG]6 [DF]4 [DF]2 | E2 F2 G2 [GB]4 [GB]2 | [GB]2 [Ae]2 [Bd]2 c6 | c2 c2 c2 B4 G2 | [DF]6 .E6 |] %16
w: |||||
V:2
 [E,B,]2 [E,B,]2 [E,C]2 [E,E]4 [E,E]2 | [E,E]2 [E,E]2 [E,B,]2 [F,B,]6 | %2
 [B,,B,]2 [B,,B,]2 [B,,B,]2 B,,4 B,,2 | [E,E]2 [E,E]2 [E,E]2 [E,E]6 | %4
 [E,E]2 [E,E]2 [E,E]2 [E,B,]4 [E,B,E]2 | [E,B,E]2 [F,B,D]2[K:treble] [G,B,E]2 [A,E]6 | %6
 [A,CE]2 [A,EA]2 [A,EA]2 [B,EG]4[K:bass] [B,E]2 | B,,6 .E,6 | %8
 E,2 E,2 E,2 [E,B,]4[K:treble] [G,E]2 | [A,E]6 .[A,EA]6 | %10
 [A,CE]2 [A,EA]2 [A,EA]2[K:bass] [E,E]4 [E,B,]2 | [B,,B,]6 [B,,B,]4 [B,,A,]2 | %12
 [E,G,]2 [E,A,E]2 [E,B,E]2 [E,E]4 [E,E]2 | [E,E]2 [F,E]2[K:treble] [G,E]2 [A,EA]6 | %14
 [A,EA]2 [A,EA]2 [A,EA]2 [B,EG]4[K:bass] [B,E]2 | [B,,A,]6 .[E,G,]6 |] %16

